X: 10759
T: Dr. Kielly-O
R: jig
M: 6/8
K: Dmajor
ABc|:d2A FGA|B2A ABc|dcd ede|g2d def|
gag fgf|efe d2A|BAG FGA|1 B2A ABc:|2 B2A A3||
K: Amix
|:a3 fef|g2f efg|a2f d2f|ecA A3|
a2a fef|g2f e2A|BAG FGA|1 B2A A3:|2 B2A ABc||

